X:1
T:Burgos, 87.87 D
T:Burgos, 87.87 D
T:Daniel Brink Towner, 1893
T:Public Domain Courtesy of the Cyber Hymnal™
C:Daniel Brink Towner, 1893
Z:Public Domain
Z:Courtesy of the Cyber Hymnal™
%%score ( 1 2 ) ( 3 4 )
L:1/8
Q:1/4=110
M:4/4
K:D
V:1 treble 
V:2 treble 
V:3 bass 
V:4 bass 
V:1
 [DF]3 [DE] D2 [DF]2 | [FA]2 [Ad]2 [Ac]2 [GB]2 | [FA]3 [DF] D2 [DE]2 | [DF]2 [DA]2 [CE]4 | %4
 [DF]3 [DE] D2 [DF]2 | [FA]2 [Ad]2 [Ac]2 [GB]2 | [FA]3 [Fd] [GB]2 [DG]2 | [DF]3 [CE] D4 | %8
 [CE]3 [DF] [EG]2 [CE]2 | [DF]3 [EG] [FA]2 [DF]2 | [CE]3 [DF] [EG]2 E2 | [DF]2 [GB]2 [FA]4 | %12
 [Fd]3 [Fd] [Fd]2 [Fd]2 | [Ge]2 [Bd]2 [Ac]2 [GB]2 | [FA]3 [Fd] [GB]2 [DG]2 | [DF]3 [CE] D4 |] %16
V:2
 x4 D2 x2 | x8 | x4 D2 x2 | x8 | x4 D2 x2 | x8 | x8 | x4 D4 | x8 | x8 | x6 E2 | x8 | x8 | x8 | x8 | %15
 x4 D4 |] %16
V:3
 [D,A,]3 [E,G,] [D,F,]2 [D,A,]2 | [D,D]2 [F,D]2 [G,D]2 [G,D]2 | [D,D]3 [D,A,] [D,F,]2 [D,F,]2 | %3
 [D,A,]2 [F,A,]2 A,4 | [D,A,]3 [D,G,] [D,F,]2 [D,A,]2 | [D,D]2 [F,D]2 [G,D]2 [G,D]2 | %6
 [D,D]3 [D,D] [G,D]2 [G,B,]2 | A,3 [A,,G,] [D,F,]4 | [A,,A,]3 [A,,A,] [A,,A,]2 [A,,A,]2 | %9
 [D,A,]3 [D,D] [D,D]2 [D,A,]2 | [G,A,]3 [F,A,] [E,A,]2 [C,A,]2 | [D,A,]2 [D,D]2 [D,D]4 | %12
 [D,A,]3 [D,A,] [D,A,]2 [D,A,]2 | [F,A,]2 [G,D]2 [G,D]2 [G,D]2 | [D,D]3 [D,D] [G,D]2 [G,B,]2 | %15
 A,3 [A,,G,] [D,F,]4 |] %16
V:4
 x8 | x8 | x8 | x4 A,4 | x8 | x8 | x8 | A,3 x5 | x8 | x8 | x8 | x8 | x8 | x8 | x8 | A,3 x5 |] %16

